coreui/free/cil-contrast.svg

<svg viewBox="0 0 512 512" xmlns="http://www.w3.org/2000/svg"><path d="M256 16C123.452 16 16 123.452 16 256c0 132.548 107.452 240 240 240s240-107.452 240-240 -107.452-240-240-240Zm-22 446.84v0c-75.22-8.06-140.17-56.25-169.667-125.9 -.37-.86-.71-1.73-1.06-2.59l170.724 95.57Zm0-69.582L50.88 290.748h-.001c-1.93-11.49-2.9-23.12-2.89-34.76q0-9.92.92-19.67l185.07 103.6Zm0-90L54.81 202.94l0 0c2.5-9.52 5.68-18.85 9.51-27.92q2.76-6.55 5.96-12.86l163.7 91.743Zm0-86.02l-147.09-82.44v0c6.62-9.22 13.98-17.88 22-25.9q3.72-3.72 7.6-7.23l117.47 64.33Zm0-87.708l-89.65-49.1v0c27.05-17.25 57.74-27.96 89.64-31.3Zm230 126.45v0c.11 111.03-87.09 202.53-198 207.76V48.21 48.2c110.9 5.23 198.1 96.73 198 207.76Z"/></svg>

<svg xmlns="http://www.w3.org/2000/svg" viewBox="0 0 512 512">
  <path fill="var(--ci-primary-color, currentColor)" d="M256,16C123.452,16,16,123.452,16,256S123.452,496,256,496,496,388.548,496,256,388.548,16,256,16ZM234,462.849a208.346,208.346,0,0,1-169.667-125.9c-.364-.859-.706-1.724-1.057-2.587L234,429.939Zm0-69.582L50.889,290.76A209.848,209.848,0,0,1,48,256q0-9.912.922-19.67L234,339.939Zm0-90L54.819,202.96a206.385,206.385,0,0,1,9.514-27.913Q67.1,168.5,70.3,162.191L234,253.934Zm0-86.015L86.914,134.819a209.42,209.42,0,0,1,22.008-25.9q3.72-3.72,7.6-7.228L234,166.027Zm0-87.708L144.352,80.451A206.951,206.951,0,0,1,234,49.151ZM464,256A207.775,207.775,0,0,1,266,463.761V48.239A207.791,207.791,0,0,1,464,256Z" class="ci-primary"/>
</svg>
